X:1
T: The Maids of Glenroe
C:
R:Jig
Q:180
K:G
M:6/8
L:1/16
|:A2|G2E2D2 E2D2E2|G2A2B2 c4d2|e2d2c2 B2c2A2|B2G2E2 E4A2|
G2E2D2 E2D2E2|G2A2B2 c4d2|e2d2c2 B2c2A2|B2G2E2 E4:|
|:g2|g2d2d2 e2d2d2|g2d2B2 c4d2|e2d2c2 B2c2A2|B2G2E2 E4g2|
g2d2d2 e2d2d2|g2d2B2 c4d2|e2d2c2 B2c2A2|B2G2G2 G4:|
